icon-svg/google-wifi-router.svg

<svg xmlns="http://www.w3.org/2000/svg" viewBox="0 0 24 24"><path fill="#44739e" d="M5.774 19.034h12.399v1.291H5.774Zm15.688-7.36H2.492l-.487 5.365a1.592 1.592 0 0 0 1.673 1.712h16.657a1.577 1.577 0 0 0 1.659-1.712Zm-.624-6.286a1.86 1.86 0 0 0-1.737-1.713H4.791a1.84 1.84 0 0 0-1.727 1.713l-.488 5.364H21.37Z"/></svg>

<svg xmlns="http://www.w3.org/2000/svg" width="24" height="24" viewBox="0 0 24 24">
  <path id="Colore_riempimento_1" fill="#44739e" data-name="Colore riempimento 1" class="cls-1" d="M 5.7750001,19.032 H 18.172 v 1.291 H 5.7750001 Z M 21.46,11.674 H 2.494 L 2.007,17.038 A 1.592,1.592 0 0 0 3.68,18.75 h 16.653 a 1.577,1.577 0 0 0 1.659,-1.712 z M 20.836,5.389 A 1.859,1.859 0 0 0 19.1,3.677 H 4.793 A 1.84,1.84 0 0 0 3.066,5.389 l -0.488,5.363 h 18.79 z"/>
</svg>
